X: 342
T: The chorus jig
C: anon.
O: Ireland
B: Francis O'Neill: "The Dance Music of Ireland" (1907) no. 342
R: Double jig
Z: Transcribed by Frank Nordberg - http://www.musicaviva.com
F: http://www.musicaviva.com/abc/tunes/ireland/oneill-1001/oneill-1001-034
2.abc
M: 6/8
L: 1/8
K: D
FAD DEF|AFD FED|FAD DFG|A2(A B)GE|FAD DEF|AFD FED|E2E (d/c/A)F|G3 GFE:|
||D2d dcd|F2A AFA|D2d dcd|[1A2A BGE|D2d dcd|F2A AFA|(B/c/d)(B c)AF|G3 GFE
:|
||[2ABA (AB)c|dcB cBA|BAG AGF|E2E (d/c/)AF|G3 GFE||FED FA(F|G)B(G F)AG|FE
D FAF|
[1A2(A B)GE|FED FA(F|G)BG FAF|E2E (d/c/B)F|G3 GFE:|[2A3 ABc|dBd cAc|(B/c/
d)(B A)GF|E2E (d/c/AF)|G3 GFE|]
W:
W:
W: From Musica Viva - http://www.musicaviva.com
W: the Internet center for free sheet music downloads.


